symbols/web/4k/materialsymbolssharp/4k_40px.svg

<svg xmlns="http://www.w3.org/2000/svg" height="40" width="40"><path d="M21.667 25h2.208v-3.75L27.208 25h2.834l-4.417-5 4.417-5h-2.834l-3.333 3.75V15h-2.208Zm-10.959-2.583h4.834V25h2.25v-2.583h1.666v-2.209h-1.666V15h-2.25v5.208h-2.584V15h-2.25ZM5 35V5h30v30Zm2.792-2.792h24.416V7.792H7.792Zm0 0V7.792v24.416Z"/></svg>

<svg xmlns="http://www.w3.org/2000/svg" height="40" width="40"><path d="M21.667 25H23.875V21.25L27.208 25H30.042L25.625 20L30.042 15H27.208L23.875 18.75V15H21.667ZM10.708 22.417H15.542V25H17.792V22.417H19.458V20.208H17.792V15H15.542V20.208H12.958V15H10.708ZM5 35V5H35V35ZM7.792 32.208H32.208V7.792H7.792ZM7.792 32.208V7.792V32.208Z"/></svg>
